X:4709
T:O'Carolan's Jig
O:england
M:6/8
L:1/8
S:Vinnie Kilduff's Whistle Wizardry cassette
K:D
|:de|~f2e dfa|edB Afe|dcB AFA|Bba bae|~f2e dfa|~e2 d cec|dcB AFA|B3 z :|
|:zc|~d2c ~d2f|faf faf|e2d dfa|b3 zab|afe dfa|edB Afe|dcB AFA|B3 z:|


